X: 788
T: Gel Ey Nesîm-i Sabâ
C: Itrî
O: Turkey
F: http://compmusic.upf.edu/node/140
N: isfahan--beste--zencir--gel_ey--itri
N: makam= isfahan
N: form= beste
N: usul= zencir = 120/4
M: 120/4
L: 1/16
K: C _2/4B   
Q: 1/4=60
%%MIDI tuningsystem comma53
A4 d4 d2 cd c2 de  | d2 ef e2 f2 g2 f2 e2 d2  | \
w:  Yâr  gel  ey   |  *  *  *  *  *  *  *  *  ne  | 
d4 e2 d2 d2 ^c4 A2  | 
w:  sî   | 
d6 z2 d2 e4 g2  | ^3/4f3e d2 a2 a3g f4  | \
w:  *  sîm_  |  *  *  *  *  i  *  sa  | 
z2 de d2 e2 e2 fg fe d2  | 
w:  bâ   | 
z2 cd c2 d2 d2 e2 d2 c2  | c4 d3c B4 c3B  | \
w:  bâ   |  *  ha   | 
A2 B2 c2 B2 A2 G2 {A}G2 A2  | 
w:   | 
^3/4F4 F4 z2 d6  | {e}d2 c2 B2 A2 z2 Bc B2 cd  | \
w:  hatt_ ı  yâ   |  *  *  *  *  *  yâr  | 
c2 d6 d2 e4 g2  | ^3/4f3e d4 g2 f2 g2 a2  | 
w:  dan   |   | 
z2 ^3/4f4 d2 e2 ^1/4f2 d4  | z2 d4 ef ed ^c=B c2 d2  | \
w:  ne  *  ha  |  ber   A *  man   | 
^c2 A2 d2 d2 e2 f2 e2 d2  | 
w:  *  *  ser vi nâ  | 
c4 d4 z4 c2 d2  | e4 e4 g2 f2 e2 d2  | \
w:  zım  *  iş  |  *  ve bâ  | 
e3d d2 c2 ed dc d4  | z2 cd c2 de d2 e2 d2 c2  | 
w:  *  *  zım  *  dil *  *  *  nü  |  vâ *  *  *  *  *  *  zım   | 
z2 Bc B2 cd c2 d2 c2 B2  | B2 A6 A2 B2 G4  | \
w:  câ *  *  *  *  *  *  nım    |  A  câ nım   | 
dc Bc d8-d2 c2  | 
w:  hatt_  | 
z2 de d2 c2 d2 c4 d2  | cB A2 B2 c2 B4 B2 c2  | \
w:  ı  *  *  *  yâr  |   | 
d4 B2 c2 d4 e2 d2  | 
w:  *  dan   | 
d2 c2 {d}c2 B2 B2 G2 A2 B2  | d2 c4 {d}cB B2 c2 A4  | \
w:   |  *  ne  *  *  *  *  *  ha  | 
G4 A8 z4  | a2 g2 ^f2 ^e2 f4 z4  | 
w:  ber   |  hey  *  câ *  nım    | 
d4 ^f4 ^3/4e2 g2 f4  | ^f8 z2 g4 a2  | \
w:  Yâr  şe mî   |  *  mîm_ i   | 
g4 a3g ^f4 g3f  | e4 ^3/4f3e d4 g2 ^1/4fe  | 
w:  zül  |   | 
d^c =B2 c2 d2 c4 ^3/4f2 g2  | ^3/4f2 g2 f2 e2 e2 =f2 e2 d2  | \
w:  *  *  *  *  *  *  fü ne   |  â   | 
z2 ^cd c2 de d2 e^3/4f e2 f2  | 
w:  â  | 
g4 ag ^2/4fe ed d^c f2 ed  | d8 ag ^3/4fg a4  | \
w:  *  mâ  |  *  SAZ  | 
a3g ^3/4f2 ga g2 a4 b2  | 
w:  de *  *  *  *  di   | 
a2 g2 ^2/4f2 e2 z2 ^3/4fg f2 ga  | \
w:  *  *  *  *  dir  *  *  me  | 
g2 a4 g2 c'2 ba a4  | z2 de d2 e2 ^3/4f2 g2 f2 b2  | 
w:  şâ   |  şâm_  | 
a4 ^3/4f2 g2 f4 e4  | z2 d4 e2 e2 g2 ^2/4f2 e2  | \
w:  *  ı  *  *  ü  |  mîd    | 
e2 z2 e2 e2 e2 ^de f2 {g}fe  | 
w:  *  Ser vi nâ  | 
e2 ^dc d2 e2 d4 a2 ^g2  | ^1/4f2 e2 a4 z2 ^g4 f2  | \
w:  zım  *  *  *  *  *  iş  |  *  *  ve bâ  | 
^g^1/4f fe e2 =g2 g2 ^f^3/4e f4  | 
w:  *  *  *  *  zım  *  dil *  *  nü  | 
z2 e^3/4f e2 fg f2 g2 f2 e2  | z2 de d2 ef e2 f2 e2 d2  | \
w:  vâ *  *  *  *  *  *  zım   |  câ *  *  *  *  *  *  nım    | 
^c2 d6 d2 c2 d2 e2  | 
w:  A  câ nım   | 
g^2/4f ed d^c =B2 B2 Bc Bc A2  | z2 =B^c B2 cd c2 d6  | 
w:  â  |  mâ *  *  de *  dir   | 
d4 z4 z2 d4 e2  | e2 cd c2 de d2 e^3/4f e2 fg  | \
w:  *  me  |  *  şâm_  | 
^3/4f2 g2 ^2/4f2 e2 d2 c2 B2 d2  | 
w:   | 
c4 B2 g2 ^3/4f4 d4  | e2 d2 ^c2 ed d4 z4  | \
w:  *  ı  *  *  ü  |  mid   | 
A4 d4 d4 z4  | A4 d4 d2 cd c2 de  | 
w:  hey  câ nım    |  Yâr  gel  ey   | 
d2 ef e2 f2 g2 f2 e2 d2  | d4 e2 d2 d2 ^c4 A2  | \
w:  *  *  *  *  *  *  *  *  ne  |  sî   | 
d6 z2 d2 e4 g2  | ^3/4f3e d2 a2 a3g f4  | 
w:  *  sîm_  |  *  *  *  *  i  *  sa  | 
z2 de d2 e2 e2 fg fe d2  | z2 cd c2 d2 d2 e2 d2 c2  | \
w:  bâ   |  bâ   | 
c4 d3c B4 c3B  | 
w:  *  ha   | 
A2 B2 c2 B2 A2 G2 {A}G2 A2  | ^3/4F4 F4 z2 d6  | \
w:   |  hatt_ ı  yâ   | 
{e}d2 c2 B2 A2 z2 Bc B2 cd  | 
w:  *  *  *  *  *  yâr  | 
c2 d6 d2 e4 g2  | ^3/4f3e d4 g2 f2 g2 a2  | \
w:  dan   |   | 
z2 ^3/4f4 d2 e2 ^1/4f2 d4  | z2 d4 ef ed ^c=B c2 d2  | 
w:  ne  *  ha  |  ber   A *  man   | 
^c2 A2 d2 d2 e2 f2 e2 d2  | c4 d4 z4 c2 d2  | \
w:  *  *  ser vi nâ  |  zım  *  iş  | 
e4 e4 g2 f2 e2 d2  | e3d d2 c2 ed dc d4  | 
w:  *  ve bâ  |  *  *  zım  *  dil *  *  *  nü  | 
z2 cd c2 de d2 e2 d2 c2  | z2 Bc B2 cd c2 d2 c2 B2  | \
w:  vâ *  *  *  *  *  *  zım   |  câ *  *  *  *  *  *  nım    | 
B2 A6 A2 B2 G4  | 
w:  A  câ nım   | 
dc Bc d8-d2 c2  | z2 de d2 c2 d2 c4 d2  | \
w:  hatt_  |  ı  *  *  *  yâr  | 
cB A2 B2 c2 B4 B2 c2  | 
w:   | 
d4 B2 c2 d4 e2 d2  | d2 c2 {d}c2 B2 B2 G2 A2 B2  | \
w:  *  dan   |   | 
d2 c4 {d}cB B2 c2 A4  | 
w:  *  ne  *  *  *  *  *  ha  | 
G4 A8 z4  | A4 A4 A4 z4  | |


